64x64/apps/systemsettings.svg

<svg height="64" viewBox="0 0 64 64" width="64" xmlns="http://www.w3.org/2000/svg"><g transform="translate(0 -250.64999)"><path d="m5 251.64999h54c2.216 0 4 1.784 4 4v54c0 2.216-1.784 4-4 4h-54c-2.216 0-4-1.784-4-4v-54c0-2.216 1.784-4 4-4z" fill="#a5b8cd"/><path d="m5 2c-1.662 0-3 1.338-3 3v54c0 1.662 1.338 3 3 3h54c1.662 0 3-1.338 3-3v-54c0-1.662-1.338-3-3-3zm3 3c1.662 0 3 1.338 3 3s-1.338 3-3 3-3-1.338-3-3 1.338-3 3-3zm48 0c1.662 0 3 1.338 3 3s-1.338 3-3 3-3-1.338-3-3 1.338-3 3-3zm-48 48c1.662 0 3 1.338 3 3s-1.338 3-3 3-3-1.338-3-3 1.338-3 3-3zm48 0c1.662 0 3 1.338 3 3s-1.338 3-3 3-3-1.338-3-3 1.338-3 3-3z" fill="#f1f1f1" transform="translate(0 250.64999)"/><g transform="matrix(-1 0 0 1 43 -23)"><path d="m3.9558058 294.64999h14.0883882c6.069517 0 10.955806 4.88629 10.955806 10.95581v.0884c0 6.06952-4.886289 10.95581-10.955806 10.95581h-14.0883882c-6.0695164-.00002-10.9558058-4.88631-10.9558058-10.95583v-.0884c0-6.06952 4.8862894-10.95581 10.9558058-10.95581z" fill="#3d92db"/><path d="m3.9999981 295.64999h14.0000039c5.539999 0 9.999998 4.46 9.999998 10s-4.459999 10-9.999998 10h-14.0000039c-5.539999 0-9.9999981-4.46-9.9999981-10s4.4599991-10 9.9999981-10z" fill="#2db2fb"/><path d="m4 296.64999c4.986 0 9 4.014 9 9v.00001c0 4.986-4.014 9-9 9-4.986 0-9-4.014-9-9v-.00001c0-4.986 4.014-9 9-9z" fill="#3d92db"/><path d="m3.9999981 297.64999h.0000038c4.431999 0 7.9999981 3.568 7.9999981 8s-3.5679991 8-7.9999981 8h-.0000038c-4.43199895 0-7.9999981-3.568-7.9999981-8s3.56799915-8 7.9999981-8z" fill="#f1f1f1"/></g></g></svg>

<?xml version="1.0" encoding="UTF-8" standalone="no"?>
<!-- Created with Inkscape (http://www.inkscape.org/) -->

<svg
   xmlns:dc="http://purl.org/dc/elements/1.1/"
   xmlns:cc="http://creativecommons.org/ns#"
   xmlns:rdf="http://www.w3.org/1999/02/22-rdf-syntax-ns#"
   xmlns:svg="http://www.w3.org/2000/svg"
   xmlns="http://www.w3.org/2000/svg"
   xmlns:sodipodi="http://sodipodi.sourceforge.net/DTD/sodipodi-0.dtd"
   xmlns:inkscape="http://www.inkscape.org/namespaces/inkscape"
   width="64"
   height="64"
   viewBox="0 0 64 64"
   version="1.1"
   id="svg8"
   inkscape:version="0.92.3 (2405546, 2018-03-11)"
   sodipodi:docname="preferences-system.svg">
  <title
     id="title7895">Antu icon Theme</title>
  <defs
     id="defs2" />
  <sodipodi:namedview
     id="base"
     pagecolor="#ffffff"
     bordercolor="#666666"
     borderopacity="1.0"
     inkscape:pageopacity="0.0"
     inkscape:pageshadow="2"
     inkscape:zoom="11.313708"
     inkscape:cx="22.448374"
     inkscape:cy="22.710197"
     inkscape:document-units="px"
     inkscape:current-layer="layer1"
     showgrid="true"
     units="px"
     inkscape:window-width="1874"
     inkscape:window-height="1141"
     inkscape:window-x="46"
     inkscape:window-y="30"
     inkscape:window-maximized="1"
     objecttolerance="10"
     gridtolerance="10"
     guidetolerance="10"
     inkscape:snap-bbox="true"
     inkscape:bbox-paths="true"
     inkscape:bbox-nodes="true"
     inkscape:snap-bbox-edge-midpoints="true"
     inkscape:snap-bbox-midpoints="true"
     inkscape:object-paths="true"
     inkscape:snap-intersection-paths="true"
     inkscape:showpageshadow="false">
    <inkscape:grid
       type="xygrid"
       id="grid7897"
       empspacing="4" />
  </sodipodi:namedview>
  <metadata
     id="metadata5">
    <rdf:RDF>
      <cc:Work
         rdf:about="">
        <dc:format>image/svg+xml</dc:format>
        <dc:type
           rdf:resource="http://purl.org/dc/dcmitype/StillImage" />
        <dc:title>Antu icon Theme</dc:title>
      </cc:Work>
    </rdf:RDF>
  </metadata>
  <g
     inkscape:label="Capa 1"
     inkscape:groupmode="layer"
     id="layer1"
     transform="translate(0,-250.64999)">
    <path
       style="opacity:1;vector-effect:none;fill:#a5b8cd;fill-opacity:1;stroke:none;stroke-width:2.28937817;stroke-linecap:round;stroke-linejoin:round;stroke-miterlimit:4;stroke-dasharray:none;stroke-dashoffset:0;stroke-opacity:1"
       d="m 5,251.64999 h 54 c 2.216,0 4,1.784 4,4 v 54 c 0,2.216 -1.784,4 -4,4 H 5 c -2.216,0 -4,-1.784 -4,-4 v -54 c 0,-2.216 1.784,-4 4,-4 z"
       id="rect863" />
    <path
       style="opacity:1;vector-effect:none;fill:#f1f1f1;fill-opacity:1;stroke:none;stroke-width:2.2155273;stroke-linecap:round;stroke-linejoin:round;stroke-miterlimit:4;stroke-dasharray:none;stroke-dashoffset:0;stroke-opacity:1"
       d="M 5 2 C 3.338 2 2 3.338 2 5 L 2 59 C 2 60.662 3.338 62 5 62 L 59 62 C 60.662 62 62 60.662 62 59 L 62 5 C 62 3.338 60.662 2 59 2 L 5 2 z M 8 5 C 9.662 5 11 6.338 11 8 C 11 9.662 9.662 11 8 11 C 6.338 11 5 9.662 5 8 C 5 6.338 6.338 5 8 5 z M 56 5 C 57.662 5 59 6.338 59 8 C 59 9.662 57.662 11 56 11 C 54.338 11 53 9.662 53 8 C 53 6.338 54.338 5 56 5 z M 8 53 C 9.662 53 11 54.338 11 56 C 11 57.662 9.662 59 8 59 C 6.338 59 5 57.662 5 56 C 5 54.338 6.338 53 8 53 z M 56 53 C 57.662 53 59 54.338 59 56 C 59 57.662 57.662 59 56 59 C 54.338 59 53 57.662 53 56 C 53 54.338 54.338 53 56 53 z "
       transform="translate(0,250.64999)"
       id="rect863-9" />
    <g
       transform="translate(8,-7.999995)"
       id="layer1-6"
       inkscape:label="Capa 1">
      <g
         transform="matrix(-1,0,0,1,13,-15.000005)"
         id="g1535">
        <g
           id="g1089"
           transform="matrix(-1,0,0,1,-22,0)">
          <g
             transform="translate(-59,11)"
             id="g5422">
            <g
               inkscape:label="Capa 1"
               id="layer1-3-2"
               transform="matrix(5.5433071,0,0,5.5433071,24.533333,-1328.2455)" />
          </g>
          <g
             id="g959">
            <path
               id="rect914"
               d="M 3.9558058,294.64999 H 18.044194 C 24.113711,294.64999 29,299.53628 29,305.6058 v 0.0884 c 0,6.06952 -4.886289,10.95581 -10.955806,10.95581 H 3.9558058 C -2.1137106,316.64999 -7,311.7637 -7,305.69418 v -0.0884 c 0,-6.06952 4.8862894,-10.95581 10.9558058,-10.95581 z"
               style="opacity:1;vector-effect:none;fill:#3d92db;fill-opacity:1;stroke:none;stroke-width:2;stroke-linecap:round;stroke-linejoin:round;stroke-miterlimit:4;stroke-dasharray:none;stroke-dashoffset:0;stroke-opacity:1"
               transform="scale(-1,1)"
               inkscape:connector-curvature="0" />
            <path
               id="rect916"
               d="M 3.9999981,295.64999 H 18.000002 c 5.539999,0 9.999998,4.46 9.999998,10 0,5.54 -4.459999,10 -9.999998,10 H 3.9999981 c -5.539999,0 -9.9999981,-4.46 -9.9999981,-10 0,-5.54 4.4599991,-10 9.9999981,-10 z"
               style="opacity:1;vector-effect:none;fill:#2db2fb;fill-opacity:1;stroke:none;stroke-width:2;stroke-linecap:round;stroke-linejoin:round;stroke-miterlimit:4;stroke-dasharray:none;stroke-dashoffset:0;stroke-opacity:1"
               transform="scale(-1,1)"
               inkscape:connector-curvature="0" />
            <path
               id="rect931"
               d="m 4,296.64999 c 4.986,0 9,4.014 9,9 v 10e-6 c 0,4.986 -4.014,9 -9,9 -4.986,0 -9,-4.014 -9,-9 v -10e-6 c 0,-4.986 4.014,-9 9,-9 z"
               style="opacity:1;vector-effect:none;fill:#3d92db;fill-opacity:1;stroke:none;stroke-width:2;stroke-linecap:round;stroke-linejoin:round;stroke-miterlimit:4;stroke-dasharray:none;stroke-dashoffset:0;stroke-opacity:1"
               transform="scale(-1,1)"
               inkscape:connector-curvature="0" />
            <path
               id="rect933"
               d="m 3.9999981,297.64999 h 3.8e-6 c 4.431999,0 7.9999981,3.568 7.9999981,8 0,4.432 -3.5679991,8 -7.9999981,8 h -3.8e-6 c -4.43199895,0 -7.9999981,-3.568 -7.9999981,-8 0,-4.432 3.56799915,-8 7.9999981,-8 z"
               style="opacity:1;vector-effect:none;fill:#f1f1f1;fill-opacity:1;stroke:none;stroke-width:2;stroke-linecap:round;stroke-linejoin:round;stroke-miterlimit:4;stroke-dasharray:none;stroke-dashoffset:0;stroke-opacity:1"
               transform="scale(-1,1)"
               inkscape:connector-curvature="0" />
          </g>
        </g>
      </g>
    </g>
  </g>
</svg>
